src/assets/text/TextPublicKey.svg

<svg width="21" height="20" viewBox="0 0 21 20" fill="none" xmlns="http://www.w3.org/2000/svg">
<g clip-path="url(#clip0_369_36321)">
<path fill-rule="evenodd" clip-rule="evenodd" d="M9.90188 8.79102L16.4987 2.16669H18.0833V3.23194L17.5459 3.7935C17.249 4.1037 17.0833 4.5165 17.0833 4.94586V6.00002H16.0686C15.6633 6.00002 15.2757 6.16559 14.9955 6.45835C14.731 6.73479 14.5833 7.10266 14.5833 7.48529V8.50002H13.7535C13.2987 8.50002 12.8638 8.68581 12.5494 9.01433L11.3825 10.2336C10.9066 10.7308 10.8198 11.4209 11.0128 11.9844C11.1663 12.4322 11.25 12.9136 11.25 13.4167C11.25 15.8559 9.27255 17.8334 6.83329 17.8334C4.39404 17.8334 2.41663 15.8559 2.41663 13.4167C2.41663 10.9774 4.39404 9.00002 6.83329 9.00002C7.29787 9.00002 7.74389 9.07141 8.162 9.2031C8.72958 9.38187 9.41667 9.27825 9.90188 8.79102ZM16.3602 0.166687C15.917 0.166687 15.492 0.343234 15.1793 0.657295L8.61349 7.25045C8.04716 7.0872 7.44961 7.00002 6.83329 7.00002C3.28947 7.00002 0.416626 9.87286 0.416626 13.4167C0.416626 16.9605 3.28947 19.8334 6.83329 19.8334C10.3771 19.8334 13.25 16.9605 13.25 13.4167C13.25 12.7449 13.1464 12.0954 12.9537 11.4845L13.8958 10.5H14.9166C15.8371 10.5 16.5833 9.75383 16.5833 8.83335V8.00002H17.4166C18.3371 8.00002 19.0833 7.25383 19.0833 6.33335V5.07966L19.6207 4.5181C19.9176 4.20791 20.0833 3.79511 20.0833 3.36575V1.83335C20.0833 0.912881 19.3371 0.166687 18.4166 0.166687H16.3602ZM5.41663 13.5C5.96891 13.5 6.41663 13.0523 6.41663 12.5C6.41663 11.9477 5.96891 11.5 5.41663 11.5C4.86434 11.5 4.41663 11.9477 4.41663 12.5C4.41663 13.0523 4.86434 13.5 5.41663 13.5Z" fill="#333333"/>
</g>
<defs>
<clipPath id="clip0_369_36321">
<rect width="20" height="20" fill="white" transform="translate(0.25)"/>
</clipPath>
</defs>
</svg>

<svg xmlns="http://www.w3.org/2000/svg" width="21" height="20" fill="none"><g clip-path="url(#a)"><path fill="#333" fill-rule="evenodd" d="m9.902 8.791 6.597-6.624h1.584v1.065l-.537.561c-.297.31-.463.723-.463 1.153V6H16.07a1.485 1.485 0 0 0-1.486 1.485V8.5h-.83c-.454 0-.89.186-1.204.514l-1.166 1.22a1.721 1.721 0 0 0-.37 1.75 4.417 4.417 0 1 1-2.85-2.781 1.721 1.721 0 0 0 1.739-.412M16.36.167c-.443 0-.868.176-1.18.49L8.612 7.25a6.417 6.417 0 1 0 4.34 4.234l.943-.984h1.02c.921 0 1.667-.746 1.667-1.667V8h.834c.92 0 1.666-.746 1.666-1.667V5.08l.538-.562c.297-.31.462-.723.462-1.152V1.833c0-.92-.746-1.666-1.666-1.666zM5.417 13.5a1 1 0 1 0 0-2 1 1 0 0 0 0 2" clip-rule="evenodd"/></g><defs><clipPath id="a"><path fill="#fff" d="M.25 0h20v20h-20z"/></clipPath></defs></svg>
